icon/ir/video-camera-off.svg

<svg stroke-width="1.5" viewBox="0 0 24 24" fill="none" xmlns="http://www.w3.org/2000/svg" height="1em" width="1em">
  <path d="M6.5 7H3.6C3.26863 7 3 7.26863 3 7.6V16.4C3 16.7314 3.26863 17 3.6 17H14.4C14.7314 17 15 16.7314 15 16.4V15M11.5 7H14.4C14.7314 7 15 7.26863 15 7.6V10.719C15 11.2277 15.5933 11.5056 15.9841 11.1799L20.0159 7.82009C20.4067 7.49443 21 7.77232 21 8.28103V15.5" stroke="currentColor" stroke-linecap="round" stroke-linejoin="round"/>
  <path d="M3 3L21 21" stroke="currentColor" stroke-linecap="round" stroke-linejoin="round"/>
</svg>

<svg width="24" height="24" stroke-width="1.5" fill="none" xmlns="http://www.w3.org/2000/svg"><path d="M6.5 7H3.6a.6.6 0 0 0-.6.6v8.8a.6.6 0 0 0 .6.6h10.8a.6.6 0 0 0 .6-.6V15m-3.5-8h2.9a.6.6 0 0 1 .6.6v3.119a.6.6 0 0 0 .984.46l4.032-3.359a.6.6 0 0 1 .984.461V15.5M3 3l18 18" stroke="currentColor" stroke-linecap="round" stroke-linejoin="round"/></svg>
